X:1
T:The Dying Cowboy
B:Oberndorfer, Marx & Anne, The New American Song Book 
F:http://www.folkinfo.org/songs
M:4/4
L:1/8
K:G
D|(D [D2d2])[Gd] [G2d2]([G3/2B3/2] [G/2B/2]) |[F3B3][FB] {B}G2D3/2 D/2|(D [D2d2])[Gd]
w:Oh, bu-ry me not on the lone prair-ie: Where the coy--otes 
[G2d2][GB] [GB] |[F3B3][FB] {B}G2(D3/2 D/2)|(D [D2d2])[Gd] [G2d2]([G3/2B3/2] [G/2B/2]) 
w:howl and the wind blows free. In a nar--row grave Just 
[F3B3][FB] {B}G2(D3/2 D/2)|D [D2d2][Fd] [Fd] [F2c2][FA] |[F3B3][FB] {B}G3|]
w:six by three; Oh_ bu-ry me not on the lone prair-ie